X:1
T:Galatia
T:Eb Major              Hezekiah Moors, 1809
T:Transcribed from Province Harmony , 1809; Counter by B. C. Johnston, 2018.
T:Isaac Watts, 1707 (Hymn 27, Book 1)                     86. 86. (C. M.)
%%score [ 1 2 3 4 ]
L:1/8
Q:1/4=90
M:3/4
K:Eb
V:1 treble nm="Tr." snm="Tr."
V:2 treble nm="C." snm="C."
V:3 treble-8 nm="T." snm="T."
V:4 bass nm="B." snm="B."
V:1
 E2 B2 A2 | G4 F2 | (E>F G2) =A2 | B4 B2 | c4 d2 | e/f/gfe d2 | e4 z2 |: z4 B2 | e4 f2 | g4 f2 | %10
w: God is my|ev- er-|las- * * ting|aid, And|hell shall|rage  _ _ _ _ in|vain;|To|him be|high- est|
 (e2 fe) dc | B6- | B4 B2 | (G>A B2) e2 | (A2 G2) F2 |1 E4 z2 :|2 E6 |] %17
w: glo- * * ry *|paid |_ And|end- * * less|praise.  _ A-|men.||
V:2
 E2 G2 A2 | G4 A2 | (B>A G2) c2 | B4 G2 | A4 F2 | (G2 FG) A2 | G4 z2 |: z6 | z6 | z4 F2 | %10
w: God is my|ev- er-|las- * * ting|aid, And|hell shall|rage  _ _ in|vain;|||To|
 G2 FE DF | E2 F2 G2 | G4 B2 | (B>A G2) B2 | (A2 G2) A2 |1 G4 z2 :|2 G6 |] %17
w: him be * high- *|est glo- ry|paid And|end- * * less|praise.  _ A-|men.||
V:3
 E2 G2 F2 | E4 F2 | (G>A B2) c2 | B4 G2 | A4 F2 | GEFG A2 | G4 z2 |: z6 | z4 B2 | e4 f2 | g4 f2 | %11
w: God is my|ev- er-|las- * * ting|aid, And|hell shall|rage  _ _ _ in|vain;||To|him be|high- est|
 (e2 fe) dc | B4 B2 | (B>A G2) B2 | (c2 B2) A2 |1 G4 z2 :|2 G6 |] %17
w: glo- * * ry *|paid And|end- * * less|praise.  _ A-|men.||
V:4
 E,2 E,2 F,2 | G,4 A,2 | (B,>A, G,2) F,2 | B,,4 E,2 | A,4 B,2 | (E,2 D,C,) B,,2 | E,4 E,2 |: %7
w: God is my|ev- er-|las- * * ting|aid, And|hell shall|rage  _ _ in|vain; To|
 G,4 E,2 | C,4 B,,2 | (E,2 A,G,) F,E, | B,6- | B,6- | B,4 B,2 | (E,>F, G,2) E,2 | (A,2 B,2) B,,2 |1 %15
w: him be|high- est|glo- * * ry *|paid |_|* And|end- * * less|praise.  _ A-|
 E,4 E,2 :|2 E,6 |] %17
w: men. To||

